X: 1
T: The Findlay's Jig
T: 8x32J 3C (Roy Goldring, 14 Social Dances 2000)
M: 6/8
L: 1/8
P: The Groom's Jig
C: Ian Findlay
C: from Muriel Johnstone & Keith Smith "Vintage Goldring" CD
C: trans. T. Traub 3-18-2014
R: Jig
K: A
|: F|"A"EAc e<ae|"F#m"fae "E"cBA|"A"EAc e<ae|"D"fec "E"B2 c|"A"EAc e<ae|"D"fae "E"cBA|"D"faf "E"ecB|"A"cAA A2 :|
|: e|"D"fed f<af|"A"edc e<ae|"D"fed f<af|"A"ecA "E"B2 c|"A"EAc e<ae|"F#m"fae "E"cBA|"A"EAc e<aB|"A"cAA A2 :|